X:1
T:O Bone Jesu
T:Johannes Brahms arr. satb BMarble
T:O Bone Jesu
T:Copyright © 2016 by CPDL.  This edition can be fully distributed, duplicated, performed, and recorded. 
T:Copyright © 2016 by CPDL.  This edition can be fully distributed, duplicated, performed, and recorded. 
T:Copyright © 2016 by CPDL.  This edition can be fully distributed, duplicated, performed, and recorded. 
C:Johannes Brahms
C:arr. satb BMarble
Z:Copyright © 2016 by CPDL.  This edition can be fully distributed, duplicated, performed, and recorded.
Z:
%%score [ 1 2 3 4 ]
L:1/8
Q:1/4=100
M:4/4
K:Bb
V:1 treble nm="Soprano" snm="S."
V:2 treble nm="Alto" snm="A."
V:3 treble-8 transpose=-12 nm="Tenor" snm="T."
V:4 bass nm="Baritone" snm="Bar."
V:1
!p! (E2!<(! D2) C2!<)! F2 |!>(! (G4 F2) E2!>)! | (BF) GF E2 (DF) | E2!<(! (D_A) A2 (G!<)!=B) | %4
w: O _ bo- ne|Je- * su|O _ bo- ne Je- su, _|mi- se- * re- re, _|
!f! c2!>(! F2 E2!>)! D2 |!p! C2 C2 z4 |!<(! E2 D2 C2 B,2!<)! |!>(! B3 A G2!>)! z2 | %8
w: mi- se- re- re|no- bis,|qui- a tu cre-|a- sti nos,|
!<(! (F2 E2) D2 C2!<)! |!>(! (c3 B A2) A2!>)! | G2 z2 _A4- | A6 B2 | G6 _A2 | F6 (G2 | %14
w: tu _ re- de-|mi- * * sti|nos, san-|* gui-|ne tu-|o prae-|
!<(! =E2) G4 c2- | c2 (B4 AG!<)! |!f! A4) A4 |!>(! !fermata!B8!>)! |] %18
w: * ti- o-|* sis- * *|* si-|mo.|
V:2
 z2 D2 E2 F2 | (E2 B,4) C2 | D2 EA, (B,C) D2 | (EC) D2 (EC) D2 | (=EC) (D_E) (E F2) G | A2 A2 z4 | %6
w: O bo- ne|Je- * su|O bo- ne Je- * su,|mi- * se- re- * re,|mi- * se- * re- * re|no- bis,|
 C2 B,2 A,2 B,2 | G3 F E2 z2 | (D2 C2) =B,2 C2 | (^F3 G F=E) (DC) | B,2 z2 =F4- | F2 _E2 F4- | %12
w: qui- a tu cre-|a- sti nos,|tu _ re- de-|mi- * * * sti _|nos, san-|* gui- ne|
 F2 D2 E4- | E2 C2 D4 | C4 C4 | (D3 _E) F4- | F4 E4 | !fermata!D8 |] %18
w: _ tu- o,|_ tu- o|prae- ti-|o- * sis-|* si-|mo.|
V:3
 (c2 B2) A2 B2 | (e4 d2) c2 | (Bf) ed c2 (Bd) | c2 (Bd) c2 (=Bd) | (c _B2) A (GF) F2 | F2 F2 z4 | %6
w: O _ bo- ne|Je- * su|O _ bo- ne Je- su, _|mi- se- * re- re, _|mi- * se- re- * re|no- bis,|
 z2 d2 e2 f2 | e2 G3 A =B2 | z2 c2 d2 e2 | (d2 A3 G A2 | Bc) (d=e) f2 z2 | (c4 d4-) | d2 B2 c4- | %13
w: qui- a tu|cre- a- sti nos,|tu re- de-|mi- * * *|* * sti- * nos,|san- *|* gui- ne|
 c2 A2 =B4 | c4 G4 | (_B3 c) d4- | d4 c4 | !fermata!B8 |] %18
w: _ tu- o|prae- ti-|o- * sis-|* si-|mo.|
V:4
 z2 B,2 C2 D2 | (A,2 G,4) A,2 | B,2 E,A, (G,A,) B,2 | (CA,) B,2 (CF,) F,2 | (G,=E,) _E,2 A,2 B,2 | %5
w: O bo- ne|Je- * su|O bo- ne Je- * su,|mi- * se- re- * re,|mi- * se- re- re|
 F,2 F,2 z4 | z2 B,2 C2 D2 | E2 E,3 F, G,2 | z2 A,2 =B,2 C2 | (D2 D,3 =E, ^F,2 | G,2) G,2 =F,2 z2 | %11
w: no- bis,|qui- a tu|cre- a- sti nos,|tu re- de-|mi- * * *|* sti- nos,|
 F,4 B,4 | E,4 _A,4 | D,4 G,4 | C,4 =E,4 | F,4 (D,3 _E,) | F,4 F,4 | !fermata!B,,8 |] %18
w: san- gui-|ne tu-|o, tu-|o prae-|ti- o- *|sis- si-|mo.|

